src/pos-icons/text-to-speech-off.svg

<svg height="24" viewBox="0 0 24 24" width="24" xmlns="http://www.w3.org/2000/svg"><path d="m2 5.27 1.28-1.27 16.72 16.72-1.27 1.28-5.35-5.35c-.83 1.7-2.45 2.94-4.38 3.27v2.08h-2v-2.08c-2.84-.48-5-2.95-5-5.92h2a4 4 0 0 0 4 4c1.82 0 3.36-1.22 3.84-2.89l-1.84-1.84v.73a2 2 0 0 1 -2 2 2 2 0 0 1 -2-2v-4.73zm19.41 4.14-4.24 4.25 1.01-3.66h-4.18a2 2 0 0 1 -2-2v-4a2 2 0 0 1 2-2h6a2 2 0 0 1 2 2v4c0 .55-.22 1.05-.59 1.41z"/></svg>

<?xml version="1.0" encoding="UTF-8"?><!DOCTYPE svg PUBLIC "-//W3C//DTD SVG 1.1//EN" "http://www.w3.org/Graphics/SVG/1.1/DTD/svg11.dtd"><svg xmlns="http://www.w3.org/2000/svg" xmlns:xlink="http://www.w3.org/1999/xlink" version="1.1" id="mdi-text-to-speech-off" width="24" height="24" viewBox="0 0 24 24"><path d="M2,5.27L3.28,4L20,20.72L18.73,22L13.38,16.65C12.55,18.35 10.93,19.59 9,19.92V22H7V19.92C4.16,19.44 2,16.97 2,14H4A4,4 0 0,0 8,18C9.82,18 11.36,16.78 11.84,15.11L10,13.27V14A2,2 0 0,1 8,16A2,2 0 0,1 6,14V9.27L2,5.27M21.41,9.41L17.17,13.66L18.18,10H14A2,2 0 0,1 12,8V4A2,2 0 0,1 14,2H20A2,2 0 0,1 22,4V8C22,8.55 21.78,9.05 21.41,9.41Z" /></svg>
